assets/svg/1F600.svg

<svg xmlns="http://www.w3.org/2000/svg" viewBox="0 0 64 64" enable-background="new 0 0 64 64"><path fill="#fbb041" d="M63.97,31.984c0,17.667-14.317,31.982-31.983,31.982C14.315,63.966,0,49.65,0,31.984     C0,14.319,14.315,0,31.986,0C49.652,0,63.97,14.319,63.97,31.984z"/><g opacity=".987"><path fill="#e79d3c" d="m15.221 41.34c-5.669-12.167-5.918-25.26-.795-36.07-8.686 5.718-14.426 15.54-14.426 26.722 0 17.662 14.315 31.978 31.986 31.978.314 0 .623-.035.938-.041-7.334-6.182-13.513-13.601-17.703-22.585"/></g><g fill="#fff"><path d="m27.488 24.636c0 5.38-2.907 9.739-6.498 9.739-3.591 0-6.504-4.359-6.504-9.739 0-5.376 2.913-9.735 6.504-9.735 3.591 0 6.498 4.359 6.498 9.735"/><path d="m49.48 24.636c0 5.38-2.905 9.739-6.495 9.739-3.591 0-6.504-4.359-6.504-9.739 0-5.376 2.913-9.735 6.504-9.735 3.59 0 6.495 4.359 6.495 9.735"/></g><g fill="#25333a"><path d="m25.2 24.636c0 2.819-1.884 5.101-4.206 5.101-2.326 0-4.208-2.282-4.208-5.101 0-2.811 1.882-5.099 4.208-5.099 2.322 0 4.206 2.288 4.206 5.099"/><path d="m47.19 24.636c0 2.819-1.884 5.101-4.207 5.101-2.326 0-4.206-2.282-4.206-5.101 0-2.811 1.88-5.099 4.206-5.099 2.324 0 4.207 2.288 4.207 5.099"/></g><path fill="#633d19" d="m51.996 39.27c0 11.05-8.963 20.01-20.01 20.01-11.04 0-20.01-8.965-20.01-20.01"/><path fill="#fff" d="m48.566 41.29c0 4.411-7.578 7.994-16.92 7.994-9.334 0-16.915-3.583-16.915-7.994"/></svg>

<?xml version="1.0" encoding="UTF-8" standalone="no"?>
<!-- Generator: Adobe Illustrator 16.0.0, SVG Export Plug-In . SVG Version: 6.00 Build 0)  -->

<svg
   xmlns:dc="http://purl.org/dc/elements/1.1/"
   xmlns:cc="http://creativecommons.org/ns#"
   xmlns:rdf="http://www.w3.org/1999/02/22-rdf-syntax-ns#"
   xmlns:svg="http://www.w3.org/2000/svg"
   xmlns="http://www.w3.org/2000/svg"
   xmlns:sodipodi="http://sodipodi.sourceforge.net/DTD/sodipodi-0.dtd"
   xmlns:inkscape="http://www.inkscape.org/namespaces/inkscape"
   version="1.1"
   id="Layer_1"
   x="0px"
   y="0px"
   width="64px"
   height="64px"
   viewBox="0 0 64 64"
   enable-background="new 0 0 64 64"
   xml:space="preserve"
   inkscape:version="0.48.5 r10040"
   sodipodi:docname="1F600.svg"
   inkscape:export-filename="D:\TESTINGEMOJI\SVGTEST\1F600.png"
   inkscape:export-xdpi="90"
   inkscape:export-ydpi="90"><metadata
   id="metadata3252"><rdf:RDF><cc:Work
       rdf:about=""><dc:format>image/svg+xml</dc:format><dc:type
         rdf:resource="http://purl.org/dc/dcmitype/StillImage" /><dc:title></dc:title></cc:Work></rdf:RDF></metadata><defs
   id="defs3250" /><sodipodi:namedview
   pagecolor="#ffffff"
   bordercolor="#666666"
   borderopacity="1"
   objecttolerance="10"
   gridtolerance="10"
   guidetolerance="10"
   inkscape:pageopacity="0"
   inkscape:pageshadow="2"
   inkscape:window-width="640"
   inkscape:window-height="480"
   id="namedview3248"
   showgrid="false"
   inkscape:zoom="3.6875"
   inkscape:cx="32"
   inkscape:cy="32"
   inkscape:window-x="651"
   inkscape:window-y="182"
   inkscape:window-maximized="0"
   inkscape:current-layer="Layer_1" />
<g
   id="g3192">
	<g
   id="g3194">
		<g
   id="g3196">
			<path
   fill="#FBB041"
   d="M63.97,31.984c0,17.667-14.317,31.982-31.983,31.982C14.315,63.966,0,49.65,0,31.984     C0,14.319,14.315,0,31.986,0C49.652,0,63.97,14.319,63.97,31.984z"
   id="path3198" />
		</g>
	</g>
	<g
   opacity="0.9866"
   id="g3200">
		<g
   id="g3202">
			<g
   id="g3204">
				<path
   fill="#E79D3C"
   d="M15.221,41.34C9.552,29.173,9.303,16.085,14.426,5.266C5.74,10.984,0,20.806,0,31.988      C0,49.65,14.315,63.966,31.986,63.966c0.314,0,0.623-0.035,0.938-0.041C25.59,57.743,19.411,50.324,15.221,41.34z"
   id="path3206" />
			</g>
		</g>
	</g>
	<g
   id="g3208">
		<g
   id="g3210">
			<g
   id="g3212">
				<path
   fill="#FFFFFF"
   d="M27.488,24.636c0,5.38-2.907,9.739-6.498,9.739c-3.591,0-6.504-4.359-6.504-9.739      c0-5.376,2.913-9.735,6.504-9.735C24.581,14.901,27.488,19.26,27.488,24.636z"
   id="path3214" />
			</g>
		</g>
		<g
   id="g3216">
			<g
   id="g3218">
				<path
   fill="#FFFFFF"
   d="M49.481,24.636c0,5.38-2.905,9.739-6.495,9.739c-3.591,0-6.504-4.359-6.504-9.739      c0-5.376,2.913-9.735,6.504-9.735C46.576,14.901,49.481,19.26,49.481,24.636z"
   id="path3220" />
			</g>
		</g>
		<g
   id="g3222">
			<g
   id="g3224">
				<path
   fill="#25333A"
   d="M25.196,24.636c0,2.819-1.884,5.101-4.206,5.101c-2.326,0-4.208-2.282-4.208-5.101      c0-2.811,1.882-5.099,4.208-5.099C23.312,19.537,25.196,21.825,25.196,24.636z"
   id="path3226" />
			</g>
		</g>
		<g
   id="g3228">
			<g
   id="g3230">
				<path
   fill="#25333A"
   d="M47.193,24.636c0,2.819-1.884,5.101-4.207,5.101c-2.326,0-4.206-2.282-4.206-5.101      c0-2.811,1.88-5.099,4.206-5.099C45.31,19.537,47.193,21.825,47.193,24.636z"
   id="path3232" />
			</g>
		</g>
	</g>
	<g
   id="g3234">
		<g
   id="g3236">
			<g
   id="g3238">
				<path
   fill="#633D19"
   d="M51.996,39.275c0,11.047-8.963,20.012-20.014,20.012c-11.043,0-20.008-8.965-20.008-20.012"
   id="path3240" />
			</g>
		</g>
		<g
   id="g3242">
			<g
   id="g3244">
				<path
   fill="#FFFFFF"
   d="M48.566,41.287c0,4.411-7.578,7.994-16.92,7.994c-9.334,0-16.915-3.583-16.915-7.994"
   id="path3246" />
			</g>
		</g>
	</g>
</g>
</svg>
